assets/icons/controls/play.svg

<svg xmlns="http://www.w3.org/2000/svg" width="24" height="24" viewBox="0 0 24 24"><path d="M12 0c-6.627 0-12 5.373-12 12s5.373 12 12 12 12-5.373 12-12-5.373-12-12-12zm-3 17v-10l9 5.146-9 4.854z"/></svg>

<?xml version="1.0" encoding="UTF-8" standalone="no"?>
<!-- Generator: Adobe Illustrator 14.0.0, SVG Export Plug-In . SVG Version: 6.00 Build 43363)  -->

<svg
   xmlns:dc="http://purl.org/dc/elements/1.1/"
   xmlns:cc="http://creativecommons.org/ns#"
   xmlns:rdf="http://www.w3.org/1999/02/22-rdf-syntax-ns#"
   xmlns:svg="http://www.w3.org/2000/svg"
   xmlns="http://www.w3.org/2000/svg"
   xmlns:xlink="http://www.w3.org/1999/xlink"
   xmlns:sodipodi="http://sodipodi.sourceforge.net/DTD/sodipodi-0.dtd"
   xmlns:inkscape="http://www.inkscape.org/namespaces/inkscape"
   version="1.1"
   x="0px"
   y="0px"
   width="24"
   height="24"
   viewBox="0 0 24 24"
   enable-background="new 0 0 960 850"
   xml:space="preserve"
   id="svg3788"
   inkscape:version="0.91 r13725"
   sodipodi:docname="play.svg"><metadata
     id="metadata4200"><rdf:RDF><cc:Work
         rdf:about=""><dc:format>image/svg+xml</dc:format><dc:type
           rdf:resource="http://purl.org/dc/dcmitype/StillImage" /><dc:title></dc:title></cc:Work></rdf:RDF></metadata><defs
     id="defs4198" /><sodipodi:namedview
     pagecolor="#ffffff"
     bordercolor="#666666"
     borderopacity="1"
     objecttolerance="10"
     gridtolerance="10"
     guidetolerance="10"
     inkscape:pageopacity="0"
     inkscape:pageshadow="2"
     inkscape:window-width="1558"
     inkscape:window-height="1014"
     id="namedview4196"
     showgrid="false"
     inkscape:zoom="2.0381313"
     inkscape:cx="128.31484"
     inkscape:cy="-1.1605248"
     inkscape:window-x="0"
     inkscape:window-y="0"
     inkscape:window-maximized="0"
     inkscape:current-layer="layer3"
     fit-margin-top="0"
     fit-margin-left="0"
     fit-margin-right="0"
     fit-margin-bottom="0" /><g
     id="Layer_1"
     display="none"
     style="display:none"
     transform="translate(-64.872,-112.359)"><image
       display="inline"
       overflow="visible"
       width="1079"
       height="645"
       xlink:href="file:///Users/jloi/code/chooAudio/footages/5EF3A0A5.png"
       transform="translate(99.0552,0)"
       id="image3791"
       sodipodi:absref="/Users/jloi/code/chooAudio/footages/5EF3A0A5.png"
       style="display:inline;overflow:visible" /></g><g
     inkscape:groupmode="layer"
     id="layer3"
     inkscape:label="play"
     style="display:inline"><path
       id="video-15"
       d="M 12,2 C 17.514,2 22,6.486 22,12 22,17.515 17.514,22 12,22 6.486,22 2,17.515 2,12 2,6.486 6.487,2 12,2 Z M 12,0 C 5.373,0 0,5.373 0,12 0,18.627 5.373,24 12,24 18.627,24 24,18.627 24,12 24,5.373 18.627,0 12,0 Z M 9,17 9,7 18,12.146 9,17 Z"
       inkscape:connector-curvature="0"
       style="fill:#c3b600" /></g></svg>
